X:599
%%etbk:tnset id:335,pos:1,rep:3x,ant:
%%etbk:tnset id:495,pos:1,rep:3x,ant:
%%etbk:pldat 2016-03-27T15:13,2015-12-11T18:09,2015-12-10T18:50,2015-12-10T18:03,2015-12-09T15:42,2015-12-08T15:12,2015-12-07T18:29,2015-12-06T13:58,2015-12-03T18:55,2015-12-02T17:22,2015-12-01T17:32,2015-11-30T18:41,2015-11-26T18:32,2015-11-04T16:06,2015-11-03T16:34,2015-11-02T18:47,2015-11-01T14:54,2015-10-21T18:08,2015-10-14T17:21,2015-10-07T16:42,2015-10-03T16:58,2015-09-28T19:15,2015-09-08T19:13,2015-08-30T16:04,2015-08-27T19:08,2015-08-24T19:04,2015-02-22T13:48,2015-02-18T17:06,2015-02-14T14:56,2015-02-11T16:27,2015-01-28T17:47,2015-01-20T17:30,2014-12-06T16:53,2014-11-18T17:21,2014-11-17T19:22,2014-10-11T14:53,2014-09-04T18:32,2014-09-03T18:41,2014-09-02T18:35,2014-09-01T18:38,2014-08-31T13:53,2014-08-28T18:35,2014-08-27T18:50,2014-08-26T16:46,2014-08-25T18:53,2014-08-24T11:47,2014-08-19T18:58,2014-08-03T15:00,2014-07-31T18:19,2014-07-26T15:13,2014-07-24T19:53,2014-07-22T19:36,2014-07-21T20:23,2014-07-20T11:43,2014-07-18T10:25,2014-07-16T17:47,2014-07-13T15:04
T: Ashokan Farewell
Z: Piano Box Version by Martin Fleischmann
H: Created 2014-07-13 /  Last Modified 2014-08-26
R: waltz
M: 3/4
L: 1/8
K: Dmaj
P:A
!1!A!3!c|:"D"!4!d3 c B!1!A|!3!F4 EF|"G"!4!G3 F E!1!D|!2!B,2 !4!D3 B,|
"D"!1!A,2 !2!D2 !3!F2|!5!!1!A2 !3!d2 !5!f2|1 !4!f3gf|"A"!3!!4!e4 !1!A!3!c :|2 "A"!1!A3 !2!c !4!e2|"D"!3!!5!d4 !2!FG ||
P:B1
"D"!4!A3 !2!F F!1!D|!5!d4 c2|"G"!3!B3 c !5!d2|"D"!1!A !3!F3 E2|
"D"!3!F3 E E!1!D|"G"!2!B,4 !1!G,2|"A"!2!!1!A,6|-A,3 !3!F FE|
P:B2
"D"!1!D2 !2!F2 !3!A2|"C"!5!=c5!3!BA|"G"!3!B3 ^c !5!d2|"D"!1!A2 !3!F3 !2!D|
"D"!1!A,3 !2!D !3!F2| !5!!1!A2 !3!d2 !5!f2 |"A"!1!A3 !2!c !4!e2|"D"!3!d4 Ac |


